!!!!SEGMENT: Ser2006-Quare_fremerunt_gentes.krn
!!!id: Ser2006
!!!AGN: Motet
!!!voices: 3-5
!!!COM: Claudin de Sermisy
!!!OTL: Quare fremerunt gentes
**kern	**kern	**kern	**kern	**kern
*part5	*part4	*part3	*part2	*part1
*staff5	*staff4	*staff3	*staff2	*staff1
*I"Bassus	*I"Tenor II	*I"Tenor I	*I"Altus	*I"Superius
*I'B	*I'T. II	*I'T. I	*I'A	*I'S
*clefF4	*clefGv2	*clefGv2	*clefGv2	*clefG2
*k[]	*k[]	*k[]	*k[]	*k[]
*C:	*C:	*C:	*C:	*C:
*M2/1	*M2/1	*M2/1	*M2/1	*M2/1
*met(C|)	*met(C|)	*met(C|)	*met(C|)	*met(C|)
!!section: Prima pars: Quare fremerunt gentes
!!!OMD: Prima pars: Quare fremerunt gentes
0r	0r	0r	0G	[0g
=1	=1	=1	=1	=1
0r	0G	0r	1B	0g]
.	.	.	[1d	.
=2	=2	=2	=2	=2
0r	1B	0r	2d]	0g
.	.	.	2d	.
.	1c	.	1e	.
=3	=3	=3	=3	=3
0r	2d	0r	2f	[0b
.	1e	.	1g	.
.	4d	.	4f	.
.	4c	.	4e	.
=4	=4	=4	=4	=4
0r	2d	0r	2f	1b]
.	2.e	.	2.g	.
.	.	.	.	[1cc
.	4d	.	4f	.
.	4c	.	4e	.
.	4B	.	4d	.
=5	=5	=5	=5	=5
0r	4c	0r	1e	0cc]
.	4B	.	.	.
.	4A	.	.	.
.	4G	.	.	.
.	1A	.	1f	.
=6	=6	=6	=6	=6
0GG	2G	0D	2g	1b
.	2.d	.	4G	.
.	.	.	4A	.
.	.	.	4B	1g
.	4c	.	4c	.
.	2B	.	[2d	.
=7	=7	=7	=7	=7
0D	1.A	0F	4d]	1.a
.	.	.	4c	.
.	.	.	4d	.
.	.	.	4e	.
.	.	.	2f	.
.	4G	.	2d	2b
.	4F	.	.	.
=8	=8	=8	=8	=8
1.C	2.E	1.G	0e	0cc
.	4C	.	.	.
.	1c	.	.	.
2C	.	2G	.	.
=9	=9	=9	=9	=9
1D	2B	1F	1d	0r
.	1A	.	.	.
1BB	.	1D	[1d	.
.	2G#i	.	.	.
=10	=10	=10	=10	=10
0AA	0A	1.E	2d]	0r
.	.	.	4c	.
.	.	.	4B	.
.	.	.	1c	.
.	.	2F	.	.
=11	=11	=11	=11	=11
[0GG	1D	2.G	2.B	0r
.	.	4A	4c	.
.	2r	4B	2d	.
.	.	4c	.	.
.	2D	[2d	2B	.
=12	=12	=12	=12	=12
0GG]	1.G	4d]	2.e	0r
.	.	4c	.	.
.	.	1c	.	.
.	.	.	8dL	.
.	.	.	8cJ	.
.	.	.	2.d	.
.	2G	2B	.	.
.	.	.	4e	.
=13	=13	=13	=13	=13
1r	1F	0c	1f	1a
1C	1G	.	2r	[1cc
.	.	.	2e	.
=14	=14	=14	=14	=14
1.F	1A	0r	1.c	2cc]
.	.	.	.	2cc
.	1A	.	.	1a
2F	.	.	2d	.
=15	=15	=15	=15	=15
1E	1B	1r	1e	1.g
[1C	[1c	1G	1g	.
.	.	.	.	2g
=16	=16	=16	=16	=16
2C]	2c]	1.c	2g	2e
2D	4B	.	2f	2f
.	4A	.	.	.
2E	1G	.	1e	2g
2F	.	2c	.	2a
=17	=17	=17	=17	=17
1G	1r	2B	0d	2.b
.	.	2G	.	.
.	.	.	.	4cc
1GG	2r	1B	.	1dd
.	2G	.	.	.
=18	=18	=18	=18	=18
1AA	1.c	2A	0r	1r
.	.	1G	.	.
1AA	.	.	.	1a
.	2c	2F#i	.	.
=19	=19	=19	=19	=19
[0GG	1B	1.G	1r	1.b
.	[1G	.	1d	.
.	.	2A	.	2cc
=20	=20	=20	=20	=20
0GG]	2G]	2B	1.g	1.dd
.	2A	2c	.	.
.	2B	1d	.	.
.	2c	.	2g	4cc
.	.	.	.	4b
=21	=21	=21	=21	=21
0r	1d	2r	1f	1a
.	.	2D	.	.
.	2.D	2.F	2f	2b
.	.	.	2f	[2a
.	4E	4G	.	.
=22	=22	=22	=22	=22
0r	2F	2A	2d	4a]
.	.	.	.	4g
.	2G	2B	2d	1g
.	1E	2c	1G	.
.	.	2G	.	4f
.	.	.	.	4e
=23	=23	=23	=23	=23
2r	0D	2.B	1d	2f
1D	.	.	.	1g
.	.	4c	.	.
.	.	1A	2d	.
2D	.	.	2d	2f#i
=24	=24	=24	=24	=24
0E	0r	2r	0B	0g
.	.	1G	.	.
.	.	2G	.	.
=25	=25	=25	=25	=25
0D	0r	1B	2r	0r
.	.	.	1d	.
.	.	1A	.	.
.	.	.	2d	.
=26	=26	=26	=26	=26
0G	0r	1.B	1e	0r
.	.	.	1d	.
.	.	2B	.	.
=27	=27	=27	=27	=27
1.F	0r	2.c	2.f	0r
.	.	4B	4e	.
.	.	2A	2d	.
2E	.	2G	2c	.
=28	=28	=28	=28	=28
2D	0r	2A	2d	0r
2C	.	1c	2e	.
1D	.	.	[1f	.
.	.	2B	.	.
=29	=29	=29	=29	=29
[0C	2r	[0c	2f]	0r
.	1G	.	4e	.
.	.	.	4d	.
.	.	.	[1e	.
.	2G	.	.	.
=30	=30	=30	=30	=30
0C]	1A	0c]	0e_	1r
.	1G	.	.	2r
.	.	.	.	[2g
=31	=31	=31	=31	=31
0r	1.c	0r	1e]	2g]
.	.	.	.	2g
.	.	.	2r	2a
.	2B	.	2d	2g
=32	=32	=32	=32	=32
1r	1A	0r	2e	1cc
.	.	.	2f	.
2r	[1G	.	[1g	[1b
2GG	.	.	.	.
=33	=33	=33	=33	=33
2BB	1G]	0r	2g]	1b]
2C	.	.	4f	.
.	.	.	4e	.
1D	1r	.	1f	1a
=34	=34	=34	=34	=34
1E	1r	2r	1g	0g
.	.	2G	.	.
1E	2r	2B	1G	.
.	2G	2c	.	.
=35	=35	=35	=35	=35
1D	2A	1d	0r	1r
.	2B	.	.	.
[1C	1c	1G	.	2r
.	.	.	.	2g
=36	=36	=36	=36	=36
2C]	1r	2r	0r	2a
2BB	.	2D	.	2b
1AA	1C	2E	.	1cc
.	.	2F	.	.
=37	=37	=37	=37	=37
1GG	1D	1G	1.g	1.b
1r	[1E	[1G	.	.
.	.	.	2g	2b
=38	=38	=38	=38	=38
0r	1E]	2G]	1g	1b
.	.	2A	.	.
.	1E	2B	1e	1g
.	.	2c	.	.
=39	=39	=39	=39	=39
0r	1F	1A	1c	1a
.	[1D	[1F	2d	2b
.	.	.	[2c	[2a
=40	=40	=40	=40	=40
1r	1D]	1F]	2c]	2a]
.	.	.	2B	4g
.	.	.	.	4f
2r	1C	1G	2c	2.e
2C	.	.	2e	.
.	.	.	.	4f
=41	=41	=41	=41	=41
2C	0r	2r	2e	1g
2C	.	2G	2e	.
2BB	.	2G	2d	2g
2C	.	2G	2c	2g
=42	=42	=42	=42	=42
0GG	2r	2.B	2.d	2g
.	2G	.	.	2.b
.	.	4c	8cL	.
.	.	.	8BJ	.
.	2G	[1d	1B	.
.	.	.	.	4cc
.	2G	.	.	[2dd
=43	=43	=43	=43	=43
2r	2F	1d]	0r	4dd]
.	.	.	.	4cc
2G	2G	.	.	2b
2G	1D	2r	.	1a
2F#i	.	2d	.	.
=44	=44	=44	=44	=44
1G	0r	2d	2r	1g
.	.	2B	2g	.
1A	.	2c	2g	2r
.	.	2c	2f	2cc
=45	=45	=45	=45	=45
1G	1r	1d	1g	2cc
.	.	.	.	2b
1C	2r	1e	[1g	1cc
.	2c	.	.	.
=46	=46	=46	=46	=46
1G	2c	1d	1g]	1dd
.	2B	.	.	.
1C	1c	1r	1e	2.cc
.	.	.	.	4b
=47	=47	=47	=47	=47
0r	1d	0r	1f	4a
.	.	.	.	4g
.	.	.	.	1a
.	2c	.	2e	.
.	2B	.	[2d	[2g
=48	=48	=48	=48	=48
1r	1A	2r	2d]	2g]
.	.	1c	2c	2f#i
2r	2.G	.	1d	4g
.	.	.	.	4a
[2G	.	2B	.	4b
.	4F	.	.	4cc
=49	=49	=49	=49	=49
2G]	1D	1d	2r	1a
2F	.	.	1f	.
1A	2r	1c	.	1r
.	[2c	.	2e	.
=50	=50	=50	=50	=50
2.G	2c]	0r	1g	2r
.	2B	.	.	1b
4F	.	.	.	.
1D	1d	.	1f	.
.	.	.	.	2a
=51	=51	=51	=51	=51
1A	1c	1r	1e	1cc
1r	1r	[1G	1d	2b
.	.	.	.	[2b
=52	=52	=52	=52	=52
0r	0r	2G]	2d	2b]
.	.	2G	1e	2b
.	.	2G	.	2b
.	.	2A	2c	2cc
=53	=53	=53	=53	=53
1r	1r	1F	1d	1a
2r	[1G	1E	1e	[1g
[2E	.	.	.	.
=54	=54	=54	=54	=54
2E]	2G]	2r	1r	1g]
2E	2G	1c	.	.
2E	2G	.	2r	1r
2F	2A	2c	[2f	.
=55	=55	=55	=55	=55
1D	1F	2B	2f]	1r
.	.	2B	2f	.
[1C	1G	1c	2e	2r
.	.	.	2e	[2cc
=56	=56	=56	=56	=56
1C]	0r	2G	1g	2cc]
.	.	2.G	.	2cc
2r	.	.	[1d	2b
.	.	4F	.	.
[2G	.	4G	.	2b
.	.	4A	.	.
=57	=57	=57	=57	=57
2G]	1r	2B	2d]	1dd
2G	.	2B	2d	.
2.F	2r	1c	1f	[1a
.	[2c	.	.	.
4G	.	.	.	.
=58	=58	=58	=58	=58
1A	2c]	0r	1e	2a]
.	2c	.	.	4g
.	.	.	.	4a
1G	2B	.	1g	1b
.	2B	.	.	.
=59	=59	=59	=59	=59
2r	1d	1r	0f	2r
2D	.	.	.	1a
1F	2A	2r	.	.
.	2A	[2A	.	[2cc
=60	=60	=60	=60	=60
1C	1c	2A]	0e	2cc]
.	.	1c	.	1g
2.C	1G	.	.	.
.	.	[2G	.	2cc
4D	.	.	.	.
=61	=61	=61	=61	=61
2E	1r	2G]	1e	2b
2F	.	2A	.	2.a
2G	2r	2B	2d	.
.	.	.	.	4g
2C	2E	2c	2e	[2g
=62	=62	=62	=62	=62
1D	2F	1A	1d	2g]
.	2D	.	.	2f#i
[1GG	2.E	1G	1B	[1g
.	4F	.	.	.
=63	=63	=63	=63	=63
1GG]	1D	2r	2r	1g]
.	.	2G	2d	.
1r	1C	[1c	[1e	2r
.	.	.	.	2g
=64	=64	=64	=64	=64
0r	0r	2c]	2e]	1.cc
.	.	2c	2e	.
.	.	2A	2e	.
.	.	2A	2e	2cc
=65	=65	=65	=65	=65
1r	2r	1d	1f	1a
.	2d	.	.	.
2r	2d	1G	1g	1b
2G	2B	.	.	.
=66	=66	=66	=66	=66
2F	2c	1r	2r	2a
2E	2e	.	2g	2.b
2.G	1d	2r	2g	.
.	.	.	.	4a
.	.	2d	2g	4b
4F	.	.	.	4cc
=67	=67	=67	=67	=67
2D	0r	2d	2f	1dd
2G	.	2B	4g	.
.	.	.	4f	.
2.A	.	2c	4e	1cc
.	.	.	4d	.
.	.	2e	4c	.
4G	.	.	4B	.
=68	=68	=68	=68	=68
2F	0r	1d	2A	2r
2G	.	.	1d	2g
1E	.	1G	.	2g
.	.	.	2c#i	2e
=69	=69	=69	=69	=69
1D	2r	0r	1d	2f
.	2d	.	.	2a
1r	2d	.	2G	4g
.	.	.	.	4a
.	2B	.	2d	4b
.	.	.	.	4cc
=70	=70	=70	=70	=70
0r	2c	1r	2e	2a
.	2e	.	1g	2g
.	1d	2r	.	1a
.	.	2d	2f#i	.
=71	=71	=71	=71	=71
2r	1G	2d	1.g	1.b
2G	.	2B	.	.
2G	1r	2d	.	.
2E	.	2e	2g	2g
=72	=72	=72	=72	=72
2F	0r	2d	2f	2a
2A	.	2c	2e	1cc
1G	.	1d	1g	.
.	.	.	.	2b
=73	=73	=73	=73	=73
[0C	2r	0c	[0e	0cc
.	2G	.	.	.
.	2G	.	.	.
.	2C	.	.	.
=74	=74	=74	=74	=74
0C]	2G	2r	0e]	0r
.	4C	2G	.	.
.	4D	.	.	.
.	4E	2G	.	.
.	4F	.	.	.
.	4G	2C	.	.
.	4A	.	.	.
=75	=75	=75	=75	=75
2r	2B	2G	0r	0r
2G	2.c	4C	.	.
.	.	4D	.	.
2G	.	4E	.	.
.	4d	4F	.	.
2C	2e	4G	.	.
.	.	4A	.	.
=76	=76	=76	=76	=76
2G	2d	2B	0r	0r
2C	1e	2.c	.	.
2.E	.	.	.	.
.	.	4B	.	.
.	2e	4G	.	.
4F	.	4A	.	.
=77	=77	=77	=77	=77
2G	2d	2B	0r	0r
2A	2c	2c	.	.
2F	2.d	2A	.	.
[2G	.	2B	.	.
.	4c	.	.	.
=78	=78	=78	=78	=78
2G]	2B	2G	0r	0r
2F	2.c	2.A	.	.
1E	.	.	.	.
.	4B	4G	.	.
.	2G	[2G	.	.
=79	=79	=79	=79	=79
1D	1A	2G]	2r	0r
.	.	2F#i	1d	.
[1GG	2r	[1G	.	.
.	[2d	.	2d	.
=80	=80	=80	=80	=80
0GG_	2d]	1G]	1B	2r
.	2d	.	.	1dd
.	1B	1r	1G	.
.	.	.	.	2dd
=81	=81	=81	=81	=81
1GG]	2G	0r	1d	1b
.	2G	.	.	.
1r	1c	.	[1e	2g
.	.	.	.	2g
=82	=82	=82	=82	=82
0r	1A	0r	2e]	1cc
.	.	.	2f	.
.	2r	.	2g	1b
.	2G	.	2d	.
=83	=83	=83	=83	=83
0r	1d	0r	1.f	2r
.	.	.	.	2a
.	2.c	.	.	[1cc
.	.	.	4e	.
.	4B	.	4d	.
=84	=84	=84	=84	=84
0r	2A	0r	4e	2cc]
.	.	.	4c	.
.	2G	.	4d	2b
.	.	.	4e	.
.	2F	.	2f	2a
.	2G	.	[2e	[2g
=85	=85	=85	=85	=85
0r	1B-i	0r	4e]	4g]
.	.	.	4d	4f
.	.	.	1d	2d
.	1A	.	.	1e
.	.	.	2c#i	.
=86	=86	=86	=86	=86
2r	2r	2r	2d	2d
1D	1A	1d	1f	1a
2D	2A	2d	2f	2a
=87	=87	=87	=87	=87
2D	2A	2d	2f	2a
2D	2A	2d	2f	2a
1AA	1A	2.c	2e	1cc
.	.	.	2f	.
.	.	4d	.	.
=88	=88	=88	=88	=88
1E	1G	1e	1g	1b
1F	[1A	1c	2r	[1a
.	.	.	2c	.
=89	=89	=89	=89	=89
1D	1A]	1d	1f	2a]
.	.	.	.	4g
.	.	.	.	4a
1G	1r	2r	2e	1b
.	.	2G	2d	.
=90	=90	=90	=90	=90
2.C	0r	1c	1.e	2.g
4D	.	.	.	4f
2E	.	2B	.	2g
2F	.	2A	2d	[2a
=91	=91	=91	=91	=91
1E	2r	1B	1.e	2a]
.	2G	.	.	2g#i
1r	1c	2.A	.	1a
.	.	.	2f	.
.	.	4G	.	.
=92	=92	=92	=92	=92
0r	2B	2E	2g	1r
.	2A	2F	2c	.
.	1B	2D	1d	2r
.	.	[2G	.	2g
=93	=93	=93	=93	=93
1r	1A	2G]	2e	1cc
.	.	2F	2f	.
2r	2B	1G	2d	2b
2C	[2c	.	2e	2g
=94	=94	=94	=94	=94
1F	4c]	0r	2.c	2a
.	4B	.	.	.
.	2A	.	.	2f
.	.	.	4d	.
2E	2G	.	2e	2g
2D	2F	.	2f	[2a
=95	=95	=95	=95	=95
1E	1G	2r	2e	4a]
.	.	.	.	4g
.	.	2C	2c	1g
1D	1A	1F	1d	.
.	.	.	.	2f#i
=96	=96	=96	=96	=96
[0GGl	[0Gl	2E	[0Bl	[0gl
.	.	2D	.	.
.	.	1E	.	.
=97	=97	=97	=97	=97
00GG]	00G]	00D	00B]	00g]
=98||	=98||	=98||	=98||	=98||
*M2/1	*M2/1	*M2/1	*M2/1	*M2/1
*met(C|)	*met(C|)	*met(C|)	*met(C|)	*met(C|)
!!section: Secunda pars: Ego autem
!!!OMD: Secunda pars: Ego autem
1D	1r	0r	0r	0r
[1G	1G	.	.	.
=99	=99	=99	=99	=99
2G]	1.d	0r	0r	0r
4F	.	.	.	.
4E	.	.	.	.
2F	.	.	.	.
2G	4c	.	.	.
.	4B	.	.	.
=100	=100	=100	=100	=100
2A	2c	1r	0r	0r
2F	1d	.	.	.
1E	.	1G	.	.
.	2c	.	.	.
=101	=101	=101	=101	=101
1D	2B	1.d	0r	0r
.	2A	.	.	.
2r	1B	.	.	.
2G	.	4c	.	.
.	.	4B	.	.
=102	=102	=102	=102	=102
2F	1A	2c	0r	0r
2D	.	1d	.	.
1E	2r	.	.	.
.	2G	2c#i	.	.
=103	=103	=103	=103	=103
2D	2F	1d	0r	0r
2.A	2D	.	.	.
.	1E	4c	.	.
4G	.	4B	.	.
[2G	.	4A	.	.
.	.	4G	.	.
=104	=104	=104	=104	=104
2G]	2D	1A	0r	0r
2F#i	1A	.	.	.
2G	.	2r	.	.
2GG	[2G	2d	.	.
=105	=105	=105	=105	=105
1AA	2G]	2c	0r	0r
.	2F#i	2A	.	.
4GG	2G	1B	.	.
4AA	.	.	.	.
4BB	4D	.	.	.
4C	4E	.	.	.
=106	=106	=106	=106	=106
2D	4F	2A	0r	0r
.	4G	.	.	.
2AA	4A	1e	.	.
.	4F	.	.	.
1BB	4G	.	.	.
.	4F	.	.	.
.	4E	[2d	.	.
.	4D	.	.	.
=107	=107	=107	=107	=107
1AA	1E	2d]	0r	0r
.	.	2c#i	.	.
2r	[1D	1d	.	.
2A	.	.	.	.
=108	=108	=108	=108	=108
2A	1D]	2r	0r	0r
2A	.	2d	.	.
2F	1r	2d	.	.
[2G	.	2d	.	.
=109	=109	=109	=109	=109
2G]	0r	2B	0r	0r
2.A	.	1c	.	.
4G	.	.	.	.
4F	.	[2d	.	.
4E	.	.	.	.
=110	=110	=110	=110	=110
2D	0r	4d]	0r	0r
.	.	4c	.	.
1G	.	4B	.	.
.	.	4A	.	.
.	.	2B	.	.
2F	.	[2c	.	.
=111	=111	=111	=111	=111
1G	2r	2c]	0r	0r
.	2d	2B	.	.
1D	2d	1A	.	.
.	2d	.	.	.
=112	=112	=112	=112	=112
0r	2B	2G	0r	0r
.	1c	2.A	.	.
.	.	4G	.	.
.	[2d	4F	.	.
.	.	4E	.	.
=113	=113	=113	=113	=113
0r	4d]	2D	0r	0r
.	4c	.	.	.
.	4B	1G	.	.
.	4A	.	.	.
.	2B	.	.	.
.	[2c	2F	.	.
=114	=114	=114	=114	=114
2r	2c]	1G	0r	0r
1G	2B	.	.	.
.	1A	1d	.	.
2F	.	.	.	.
=115	=115	=115	=115	=115
1E	1G	2c	0r	0r
.	.	1B	.	.
1D	1d	.	.	.
.	.	[2A	.	.
=116	=116	=116	=116	=116
2F	2c	2A]	0r	0r
2G	1B	1d	.	.
1E	.	.	.	.
.	2G	2c#i	.	.
=117	=117	=117	=117	=117
2D	2B	2d	0r	0r
2C	2c	1e	.	.
2D	1A	.	.	.
2F	.	[2d	.	.
=118	=118	=118	=118	=118
1E	1G	2d]	0r	0r
.	.	2c#i	.	.
1r	[1B	1d	.	.
=119	=119	=119	=119	=119
1.G	2B]	2r	0r	0r
.	2B	1d	.	.
.	1B	.	.	.
2G	.	2d	.	.
=120	=120	=120	=120	=120
1G	1B	2d	0r	0r
.	.	1e	.	.
1A	1c	.	.	.
.	.	[2c	.	.
=121	=121	=121	=121	=121
1F	2A	2c]	0r	0r
.	2.d	1A	.	.
1D	.	.	.	.
.	4c	.	.	.
.	4B	[2d	.	.
.	4A	.	.	.
=122	=122	=122	=122	=122
1G	2B	4d]	0r	0r
.	.	4c	.	.
.	1d	4B	.	.
.	.	4A	.	.
2r	.	2B	.	.
[2G	2d	[2B	.	.
=123	=123	=123	=123	=123
2G]	1d	2B]	0r	0r
2G	.	2B	.	.
2E	2.e	2G	.	.
2C	.	2G	.	.
.	4d	.	.	.
=124	=124	=124	=124	=124
2.F	4c	2.A	0r	0r
.	4B	.	.	.
.	1A	.	.	.
4E	.	4G	.	.
4D	.	4F	.	.
4C	.	4E	.	.
4BB	[2B	2D	.	.
4AA	.	.	.	.
=125	=125	=125	=125	=125
4GG	4B]	2.G	0r	0r
4AA	4A	.	.	.
4BB	1d	.	.	.
4C	.	4E	.	.
4D	.	4F	.	.
4E	.	4G	.	.
4F	2c	[2A	.	.
4G	.	.	.	.
=126	=126	=126	=126	=126
2F	0d	2A]	0r	0r
1G	.	2G	.	.
.	.	2A	.	.
2F#i	.	2A	.	.
=127	=127	=127	=127	=127
1G	2.d	1B	0r	0r
.	4c	.	.	.
2r	4B	[1d	.	.
.	4c	.	.	.
2D	2A	.	.	.
=128	=128	=128	=128	=128
1E	1G	2d]	0r	0r
.	.	2c	.	.
[1G	1d	[1B	.	.
=129	=129	=129	=129	=129
2G]	1r	2B]	0r	0r
2F	.	2A	.	.
1E	1G	2B	.	.
.	.	[2c	.	.
=130	=130	=130	=130	=130
0r	1A	4c]	0r	0r
.	.	4B	.	.
.	.	4A	.	.
.	.	4G	.	.
.	[1c	2F	.	.
.	.	[2A	.	.
=131	=131	=131	=131	=131
1C	2c]	4A]	0r	0r
.	.	4G	.	.
.	2B	1G	.	.
2D	1A	.	.	.
[2F	.	2F#i	.	.
=132	=132	=132	=132	=132
2F]	2r	1G	0r	0r
2E	2G	.	.	.
1D	2A	1d	.	.
.	2B	.	.	.
=133	=133	=133	=133	=133
1.C	2.c	1e	0r	0r
.	4B	.	.	.
.	2A	2c	.	.
2BB	[2G	2d	.	.
=134	=134	=134	=134	=134
2C	2G]	2e	0r	0r
2D	2F	4d	.	.
.	.	4c	.	.
1E	[1G	2B	.	.
.	.	[2c	.	.
=135	=135	=135	=135	=135
2r	1G]	2c]	0r	0r
2G	.	2B	.	.
2F	1r	1c	.	.
[2E	.	.	.	.
=136	=136	=136	=136	=136
4E]	1G	2B	0r	0r
4D	.	.	.	.
4C	.	2.c	.	.
4BB	.	.	.	.
2.AA	2F	.	.	.
.	.	4B	.	.
.	[2E	4c	.	.
4BB	.	4d	.	.
=137	=137	=137	=137	=137
4C	4E]	1.e	0r	0r
4BB	4D	.	.	.
1C	4E	.	.	.
.	4F	.	.	.
.	2G	.	.	.
2AA	[2A	4d	.	.
.	.	4c	.	.
=138	=138	=138	=138	=138
1BB	2A]	1d	0r	0r
.	2G#i	.	.	.
1AA	1A	2r	.	.
.	.	2c	.	.
=139	=139	=139	=139	=139
2r	1D	2B	0r	0r
1D	.	2.A	.	.
.	2r	.	.	.
.	.	4G	.	.
2D	[2A	4F	.	.
.	.	4E	.	.
=140	=140	=140	=140	=140
2.F	2A]	2.D	0r	0r
.	2A	.	.	.
4E	.	4E	.	.
2.D	2A	4F	.	.
.	.	4E	.	.
.	2B	[2F	.	.
4C	.	.	.	.
=141	=141	=141	=141	=141
2AA	2c	2F]	0r	0r
2BB	1d	4E	.	.
.	.	4D	.	.
1AA	.	1E	.	.
.	2c#i	.	.	.
=142	=142	=142	=142	=142
1r	2d	2D	0r	0r
.	2.D	1A	.	.
1D	.	.	.	.
.	4E	.	.	.
.	4F	2A	.	.
.	4G	.	.	.
=143	=143	=143	=143	=143
2D	1F	2A	0r	0r
2D	.	2B	.	.
2E	2G	2c	.	.
2F	2A	[2d	.	.
=144	=144	=144	=144	=144
2G	2B	2d]	0r	0r
2.A	2c	2c	.	.
.	2B	1d	.	.
4G	.	.	.	.
[2G	2G	.	.	.
=145	=145	=145	=145	=145
2G]	1A	2r	0r	0r
2F#i	.	1d	.	.
2.G	1B	.	.	.
.	.	2B	.	.
4E	.	.	.	.
=146	=146	=146	=146	=146
2F	2r	1d	0r	0r
2G	1G	.	.	.
1C	.	1c	.	.
.	2E	.	.	.
=147	=147	=147	=147	=147
0r	1G	2.B	0r	0r
.	.	4c	.	.
.	1F	2d	.	.
.	.	[2c	.	.
=148	=148	=148	=148	=148
2r	1E	4c]	0r	0r
.	.	4B	.	.
1C	.	2G	.	.
.	2r	1A	.	.
2AA	[2E	.	.	.
=149	=149	=149	=149	=149
1C	4E]	1G	0r	0r
.	4D	.	.	.
.	4E	.	.	.
.	4F	.	.	.
2BB	4G	1r	.	.
.	4D	.	.	.
2GG	[2G	.	.	.
=150	=150	=150	=150	=150
1AA	2G]	2r	0r	0r
.	2F#i	1c	.	.
1GG	1G	.	.	.
.	.	2B	.	.
=151	=151	=151	=151	=151
2r	2D	2A	0r	0r
1G	2E	2G	.	.
.	1D	1A	.	.
2F	.	.	.	.
=152	=152	=152	=152	=152
2E	1r	2G	0r	0r
2D	.	1d	.	.
1E	2r	.	.	.
.	[2c	2c#i	.	.
=153	=153	=153	=153	=153
2D	2c]	1d	0r	0r
2G	2B	.	.	.
2F	2A	2r	.	.
2E	2G	2c	.	.
=154	=154	=154	=154	=154
2D	1A	2d	0r	0r
1C	.	1e	.	.
.	[1G	.	.	.
2BB	.	[2d	.	.
=155	=155	=155	=155	=155
1C	2G]	2d]	0r	0r
.	2E	1c	.	.
2r	2F	.	.	.
[2E	2G	2B	.	.
=156	=156	=156	=156	=156
2E]	1C	2c	0r	0r
2E	.	2G	.	.
1F	[1c	1A	.	.
=157	=157	=157	=157	=157
1E	2c]	1G	0r	0r
.	2c	.	.	.
2.D	1d	2r	.	.
.	.	[2A	.	.
4C	.	.	.	.
=158	=158	=158	=158	=158
2AA	4c	2A]	0r	0r
.	4d	.	.	.
2C	4e	2A	.	.
.	4c	.	.	.
2GG	2d	1B	.	.
2G	2e	.	.	.
=159	=159	=159	=159	=159
2F	2d	2A	0r	0r
2E	1c	1G	.	.
1D	.	.	.	.
.	2B	2F	.	.
=160	=160	=160	=160	=160
0C	1.c	1G	0r	0r
.	.	[1c	.	.
.	2d	.	.	.
=161	=161	=161	=161	=161
1r	1e	1c]	0r	0r
[1G	1d	1B	.	.
=162	=162	=162	=162	=162
1G]	1r	1d	0r	0r
1F	[1c	1A	.	.
=163	=163	=163	=163	=163
0E	1c]	1r	0r	0r
.	1B	1G	.	.
=164	=164	=164	=164	=164
0D	1d	1A	0r	0r
.	1A	1F	.	.
=165	=165	=165	=165	=165
0r	1d	4G	0r	0r
.	.	4A	.	.
.	.	4B	.	.
.	.	4A	.	.
.	1e	4G	.	.
.	.	4F	.	.
.	.	4E	.	.
.	.	4D	.	.
=166	=166	=166	=166	=166
1G	1c	2E	0r	0r
.	.	2E	.	.
1A	4d	[1D	.	.
.	4e	.	.	.
.	4f	.	.	.
.	4e	.	.	.
=167	=167	=167	=167	=167
1F	4d	1D]	0r	0r
.	4c	.	.	.
.	4B	.	.	.
.	4A	.	.	.
4G	2B	1r	.	.
4A	.	.	.	.
4B	[2d	.	.	.
4A	.	.	.	.
=168	=168	=168	=168	=168
4G	2d]	1r	0r	0r
4F	.	.	.	.
4E	4c#i	.	.	.
4D	4B	.	.	.
2E	1c#i	1G	.	.
2E	.	.	.	.
=169	=169	=169	=169	=169
1D	0d	1A	0r	0r
2r	.	1B	.	.
2D	.	.	.	.
=170	=170	=170	=170	=170
1E	1G	1c	0r	0r
1F	1A	[1d	.	.
=171	=171	=171	=171	=171
1G	1B	2d]	0r	0r
.	.	2d	.	.
[1F	[1c	[1A	.	.
=172	=172	=172	=172	=172
2F]	1c]	1A]	0r	0r
2F	.	.	.	.
1D	[1d	1A	.	.
=173	=173	=173	=173	=173
1G	2d]	1B	0r	0r
.	2d	.	.	.
2F	1A	2c	.	.
2D	.	2d	.	.
=174	=174	=174	=174	=174
1E	1c	2.G	0r	0r
.	.	4A	.	.
2.D	2B	4B	.	.
.	.	4c	.	.
.	[2A	[2d	.	.
4C	.	.	.	.
=175	=175	=175	=175	=175
2BB	4A]	2d]	0r	0r
.	4G	.	.	.
2C	1G	1e	.	.
1AA	.	.	.	.
.	2F#i	4d	.	.
.	.	4c	.	.
=176	=176	=176	=176	=176
*M3/1	*M3/1	*M3/1	*M3/1	*M3/1
*met(3)	*met(3)	*met(3)	*met(3)	*met(3)
0.GG	1.G	0B	1%3r	1%3r
.	2F	.	.	.
.	1D	1r	.	.
=177	=177	=177	=177	=177
1r	1E	1G	1%3r	1%3r
1r	0D	1A	.	.
1D	.	1B	.	.
=178	=178	=178	=178	=178
1E	1G	1c	1%3r	1%3r
1F	1A	1.d	.	.
1G	1B	.	.	.
.	.	2d	.	.
=179	=179	=179	=179	=179
1.F	0c	0A	1%3r	1%3r
2F	.	.	.	.
1D	[1d	1A	.	.
=180	=180	=180	=180	=180
1G	2d]	1B	1%3r	1%3r
.	2d	.	.	.
1F	1A	1c	.	.
1E	1c	2G	.	.
.	.	2A	.	.
=181	=181	=181	=181	=181
0D	1B	2B	1%3r	1%3r
.	.	2c	.	.
.	1.A	0d	.	.
1BB	.	.	.	.
.	2G	.	.	.
=182	=182	=182	=182	=182
1C	0G	1e	1%3r	1%3r
0AA	.	0c	.	.
.	1F#i	.	.	.
=183	=183	=183	=183	=183
00GG	00G	00B	00r	00r
=184||	=184||	=184||	=184||	=184||
*M2/1	*M2/1	*M2/1	*M2/1	*M2/1
*met(C|)	*met(C|)	*met(C|)	*met(C|)	*met(C|)
!!section: Tertia pars: Et nunc reges
!!!OMD: Tertia pars: Et nunc reges
0C	0G	0c	0e	0g
=185	=185	=185	=185	=185
0C	0G	1c	0e	0g
.	.	1c	.	.
=186	=186	=186	=186	=186
0C	0E	[0G	0c	0cc
=187	=187	=187	=187	=187
0GG	1D	0G]	0d	0b
.	1d	.	.	.
=188	=188	=188	=188	=188
1D	1d	1A	1f	1a
1D	[1d	1A	1f	1a
=189	=189	=189	=189	=189
1.D	2d]	1.F	1.f	1.dd
.	2d	.	.	.
.	2.A	.	.	.
2D	.	2F	2f	2dd
.	4B	.	.	.
=190	=190	=190	=190	=190
[0C	[0c	[0G	[0e	0ee
=191	=191	=191	=191	=191
0C_	0c_	0G_	0e_	[0cc
=192	=192	=192	=192	=192
0C;]	0c;]	0G;]	0e;]	0cc;]
=193	=193	=193	=193	=193
0r	0r	0r	1.d	0a
.	.	.	2d	.
=194	=194	=194	=194	=194
0r	0r	0r	2c	1a
.	.	.	2.d	.
.	.	.	.	2b
.	.	.	4c	.
.	.	.	4B	[2dd
.	.	.	4A	.
=195	=195	=195	=195	=195
0r	0r	0r	2G	4dd]
.	.	.	.	4cc
.	.	.	1d	4b
.	.	.	.	4a
.	.	.	.	2b
.	.	.	2c	[2cc
=196	=196	=196	=196	=196
0r	0r	0r	1f	4cc]
.	.	.	.	4a
.	.	.	.	1dd
.	.	.	1e	.
.	.	.	.	2cc#i
=197	=197	=197	=197	=197
0r	0r	0r	2r	1dd
.	.	.	1d	.
.	.	.	.	1a
.	.	.	2f	.
=198	=198	=198	=198	=198
0r	0r	0r	1e	2cc
.	.	.	.	1b
.	.	.	1d	.
.	.	.	.	[2a
=199	=199	=199	=199	=199
0r	0r	0r	1c	2a]
.	.	.	.	2g
.	.	.	2d	2f
.	.	.	[2e	[2g
=200	=200	=200	=200	=200
0r	2r	0r	4e]	4g]
.	.	.	4d	4f
.	1A	.	4c	4e
.	.	.	4B	4d
.	.	.	1c	1e
.	2c	.	.	.
=201	=201	=201	=201	=201
2r	1B	1r	1d	1d
1D	.	.	.	.
.	1A	2r	1r	1r
2F	.	2A	.	.
=202	=202	=202	=202	=202
1E	1G	2c	0r	0r
.	.	1B	.	.
1D	1d	.	.	.
.	.	[2A	.	.
=203	=203	=203	=203	=203
2.C	2.e	2A]	0r	0r
.	.	2G	.	.
4BB	4d	.	.	.
2AA	4c	4A	.	.
.	4B	4G	.	.
[2D	4A	4F	.	.
.	4G	4E	.	.
=204	=204	=204	=204	=204
2D]	2B	2F	1r	0r
2C	2c	1G	.	.
1D	1A	.	2r	.
.	.	2F#i	2d	.
=205	=205	=205	=205	=205
[0GG	1B	0G	1d	2r
.	.	.	.	2dd
.	1r	.	2B	1dd
.	.	.	[2G	.
=206	=206	=206	=206	=206
1GG]	0r	1r	4G]	1b
.	.	.	4A	.
.	.	.	4B	.
.	.	.	4c	.
1r	.	2r	4d	[1a
.	.	.	4e	.
.	.	2d	[2f	.
=207	=207	=207	=207	=207
0r	0r	1d	2f]	2a]
.	.	.	4e	2b
.	.	.	4d	.
.	.	2A	1e	1cc
.	.	2c	.	.
=208	=208	=208	=208	=208
1r	2r	2B	1d	[0dd
.	2d	2.G	.	.
2r	1d	.	[1g	.
.	.	4A	.	.
2G	.	4B	.	.
.	.	4c	.	.
=209	=209	=209	=209	=209
1G	2B	1d	2g]	1dd]
.	2G	.	4f	.
.	.	.	4e	.
2D	1A	2r	1f	1r
2F	.	2c	.	.
=210	=210	=210	=210	=210
2E	0G	1e	0g	2r
2.C	.	.	.	2g
.	.	1e	.	1cc
4D	.	.	.	.
4E	.	.	.	.
4F	.	.	.	.
=211	=211	=211	=211	=211
1G	1r	0d	2r	1b
.	.	.	2d	.
1D	2r	.	1f	1a
.	2A	.	.	.
=212	=212	=212	=212	=212
1r	1c	1A	1e	1r
2r	1B	1r	1d	2r
2D	.	.	.	2f
=213	=213	=213	=213	=213
1F	2A	2r	0r	1a
.	1d	2A	.	.
1E	.	1c	.	[1g
.	2c	.	.	.
=214	=214	=214	=214	=214
0D	0d	2B	0r	2g]
.	.	4A	.	4f
.	.	4G	.	4e
.	.	2A	.	1f
.	.	2B	.	.
=215	=215	=215	=215	=215
2r	2r	0c	0r	2e
1C	1G	.	.	2c
.	.	.	.	2.e
2C	2A	.	.	.
.	.	.	.	4f
=216	=216	=216	=216	=216
2BB	2B	0r	1r	2g
2AA	1c	.	.	2a
2.C	.	.	[1c	1g
.	[2G	.	.	.
4D	.	.	.	.
=217	=217	=217	=217	=217
2E	2G]	0r	2c]	0r
2F	2A	.	2c	.
1D	1F	.	2B	.
.	.	.	2A	.
=218	=218	=218	=218	=218
0C	0G	2r	2.c	0r
.	.	1c	.	.
.	.	.	4d	.
.	.	.	4e	.
.	.	.	4f	.
.	.	2c	2e	.
=219	=219	=219	=219	=219
0r	0r	2B	2d	2r
.	.	2A	2c	1cc
.	.	2.c	2.e	.
.	.	.	.	2cc
.	.	4d	4f	.
=220	=220	=220	=220	=220
0r	1r	2e	2g	2b
.	.	1f	2d	2a
.	1A	.	1r	1cc
.	.	2e	.	.
=221	=221	=221	=221	=221
0r	2.B-i	2d	0r	2.dd
.	.	4G	.	.
.	4A	4A	.	4cc
.	2G	4B	.	2b
.	.	4G	.	.
.	2F	[2c	.	2a
=222	=222	=222	=222	=222
1GG	1G	2c]	1d	[0g
.	.	2B	.	.
2.C	1E	1c	2.e	.
4D	.	.	4d	.
=223	=223	=223	=223	=223
4E	0r	1r	2c	1g]
4F	.	.	.	.
1G	.	.	2B	.
.	.	1A	1c	2r
2F#i	.	.	.	2a
=224	=224	=224	=224	=224
1G	2r	2.B	1d	2.dd
.	1G	.	.	.
.	.	4A	.	4cc
1r	.	2G	2e	2b
.	2A	2F	2f	[2a
=225	=225	=225	=225	=225
1r	2B	2G	2d	4a]
.	.	.	.	4g
.	2G	2E	2c	1g
2r	1A	1D	1d	.
2D	.	.	.	2f#i
=226	=226	=226	=226	=226
2.E	1G	0G	2B	[0g
.	.	.	1e	.
4D	.	.	.	.
2C	2r	.	.	.
2BB	[2G	.	2d	.
=227	=227	=227	=227	=227
1C	2G]	2r	1e	1g]
.	2G	1c	.	.
1r	2F	.	2f	1r
.	2E	2c	[2g	.
=228	=228	=228	=228	=228
0r	1D	2B	2g]	0r
.	.	2A	2f	.
.	1d	2G	2g	.
.	.	2B	2g	.
=229	=229	=229	=229	=229
0r	2.c	2.A	2.f	0r
.	4B	4G	4e	.
.	2A	2F	2d	.
.	2G	2E	2c	.
=230	=230	=230	=230	=230
1r	1A	1D	0d	1a
1D	2r	1r	.	1f
.	[2d	.	.	.
=231	=231	=231	=231	=231
1BB	4d]	0r	0r	1g
.	4c	.	.	.
.	4B	.	.	.
.	4A	.	.	.
1C	2G	.	.	1g
.	[2c	.	.	.
=232	=232	=232	=232	=232
1C	4c]	0r	1r	1cc
.	4B	.	.	.
.	4A	.	.	.
.	4G	.	.	.
1r	2F	.	1d	2a
.	[2G	.	.	[2b
=233	=233	=233	=233	=233
0r	4G]	0r	1B	4b]
.	4F	.	.	4a
.	4E	.	.	4g
.	4D	.	.	4f
.	2C	.	1c	2e
.	[2F	.	.	2A
=234	=234	=234	=234	=234
0r	4F]	1A	2c	2r
.	4E	.	.	.
.	4D	.	1f	1a
.	4C	.	.	.
.	1D	1F	.	.
.	.	.	2f	2a
=235	=235	=235	=235	=235
1r	1C	1G	1e	1cc
2r	1r	2G	2.d	1b
[2GG	.	[2d	.	.
.	.	.	4c	.
=236	=236	=236	=236	=236
2GG]	0r	2d]	2B	1.dd
2GG	.	2d	2G	.
1D	.	1f	2A	.
.	.	.	2B	2dd
=237	=237	=237	=237	=237
1C	0r	1e	1c	2g
.	.	.	.	2.cc
1F	.	2c	1r	.
.	.	.	.	4b
.	.	[2d	.	2a
=238	=238	=238	=238	=238
1E	1G	2d]	0r	1g
.	.	2c#i	.	.
[1D	2.A	[1d	.	1r
.	4G	.	.	.
=239	=239	=239	=239	=239
1D]	2F	1d]	1r	2r
.	2D	.	.	1dd
2r	1G	1B	1d	.
[2G	.	.	.	2b
=240	=240	=240	=240	=240
2G]	1C	1r	2.e	1cc
1A	.	.	.	.
.	.	.	4d	.
.	1F	2r	2c	2.a
[2F	.	[2d	2A	.
.	.	.	.	4g
=241	=241	=241	=241	=241
2F]	0r	2d]	1d	2a
2G	.	1e	.	2b
1E	.	.	1G	4cc
.	.	.	.	4b
.	.	2c	.	8ccL
.	.	.	.	8b
.	.	.	.	8a
.	.	.	.	8gJ
=242	=242	=242	=242	=242
1D	0r	1d	1r	1f
[1C	.	1G	[1e	[1g
=243	=243	=243	=243	=243
1C]	2r	2r	1e]	1g]
.	1G	1c	.	.
1C	.	.	1e	1r
.	2G	2c	.	.
=244	=244	=244	=244	=244
1D	1F	1A	1d	2r
.	.	.	.	2a
1BB	1D	1G	[1d	1b
=245	=245	=245	=245	=245
0AA	0E	[0A	2d]	2.cc
.	.	.	4c#i	.
.	.	.	4B	4b
.	.	.	1c#i	2a
.	.	.	.	2g
=246	=246	=246	=246	=246
1D	0D	0A]	[0d	2f
.	.	.	.	2.a
1r	.	.	.	.
.	.	.	.	4g
.	.	.	.	4f
.	.	.	.	4e
=247	=247	=247	=247	=247
1D	1A	0r	1d]	1f
2GG	[1B	.	1r	1d
[2G	.	.	.	.
=248	=248	=248	=248	=248
2G]	2B]	0r	1d	0r
2F	2A	.	.	.
1E	2B	.	2G	.
.	2c	.	[2g	.
=249	=249	=249	=249	=249
1D	1d	1r	2g]	1a
.	.	.	2f	.
1r	1r	1A	1e	1cc
=250	=250	=250	=250	=250
0r	0r	2D	2d	2.dd
.	.	2.d	2.f	.
.	.	.	.	4cc
.	.	.	.	2b
.	.	4c	4e	.
.	.	4B	4d	[2a
.	.	4A	4c	.
=251	=251	=251	=251	=251
2r	2r	2B	1d	4a]
.	.	.	.	4g
2GG	2d	2B	.	1g
1D	1d	1A	1r	.
.	.	.	.	2f#i
=252	=252	=252	=252	=252
2GG	1.B	0r	2r	1g
1G	.	.	2G	.
.	.	.	1d	1r
2F	2A	.	.	.
=253	=253	=253	=253	=253
2.E	2B	2r	2G	0r
.	2c	2G	1g	.
4C	.	.	.	.
1D	2.A	1d	.	.
.	.	.	2f	.
.	4B	.	.	.
=254	=254	=254	=254	=254
1C	1c	2G	1e	2r
.	.	1c	.	2g
1r	1G	.	1d	1dd
.	.	2B	.	.
=255	=255	=255	=255	=255
0r	2r	4c	4e	2g
.	.	4B	4d	.
.	1c	4A	4c	4a
.	.	4G	4B	4b
.	.	4F	4A	4cc
.	.	4E	4G	4a
.	[2f	[2D	[2A	[2dd
=256	=256	=256	=256	=256
0r	2f]	2D]	2A]	2dd]
.	2e	2E	2G	1cc
.	1d	2F	2A	.
.	.	2G	2B	2b
=257	=257	=257	=257	=257
1C	0c	1C	0G	[0cc
[1C	.	2r	.	.
.	.	2G	.	.
=258	=258	=258	=258	=258
1C]	1c	1.G	1r	0cc]
[1C	[1c	.	1g	.
.	.	2G	.	.
=259	=259	=259	=259	=259
1C]	2c]	2E	1.g	0r
.	2c	4D	.	.
.	.	4C	.	.
1GG	1B	1D	.	.
.	.	.	2g	.
=260	=260	=260	=260	=260
1AA	1.A	1C	1e	1cc
2r	.	1r	1c	[1cc
[2C	2G	.	.	.
=261	=261	=261	=261	=261
4C]	1c	2.G	1e	2cc]
4D	.	.	.	.
4E	.	.	.	2cc
4F	.	4A	.	.
2G	1r	4B	2d	1b
.	.	4c	.	.
2D	.	[2d	[2f	.
=262	=262	=262	=262	=262
1F	1r	2d]	2f]	1a
.	.	2A	2f	.
1C	2.G	2c	1e	1r
.	.	[2G	.	.
.	4A	.	.	.
=263	=263	=263	=263	=263
0r	4B	2G]	2d	1b
.	4c	.	.	.
.	1d	2D	1f	.
.	.	1F	.	2a
.	2A	.	2f	[2cc
=264	=264	=264	=264	=264
1r	1c	1C	1e	2cc]
.	.	.	.	4g
.	.	.	.	4a
2.GG	[1G	2.D	[1d	4b
.	.	.	.	4cc
.	.	.	.	[2dd
4AA	.	4C	.	.
=265	=265	=265	=265	=265
4BB	2G]	4D	1d]	4dd]
4C	.	4E	.	4cc
1D	4F	2.F	.	2b
.	4G	.	.	.
.	4A	.	2r	1a
.	4B	4E	.	.
2AA	[2c	4C	[2e	.
.	.	4D	.	.
=266	=266	=266	=266	=266
1C	4c]	1E	4e]	1g
.	4B	.	4d	.
.	4G	.	4e	.
.	4A	.	4f	.
1GG	4B	[1D	1g	1dd
.	4c	.	.	.
.	[2d	.	.	.
=267	=267	=267	=267	=267
0D	2d]	2D]	1f	1.dd
.	4c	2E	.	.
.	4B	.	.	.
.	1A	1F	[1d	.
.	.	.	.	2cc
=268	=268	=268	=268	=268
0E	0G	1G	2d]	2.b
.	.	.	4c#i	.
.	.	.	4B	4a
.	.	1r	1c#i	[1g
=269	=269	=269	=269	=269
0D	0A	2r	1d	2g]
.	.	2.d	.	4f#i
.	.	.	.	4e
.	.	.	2r	1f#i
.	.	4c	.	.
.	.	2A	[2d	.
=270	=270	=270	=270	=270
0GG	[0Gl	2.B	4d]	[0gl
.	.	.	4c	.
.	.	.	4B	.
.	.	4c	4A	.
.	.	2d	1B	.
.	.	2D	.	.
=271	=271	=271	=271	=271
0C	0G_	1E	0c	0g_
.	.	1E	.	.
=272	=272	=272	=272	=272
00GGl	00G]	00Dl	00Bl	00g]
==	==	==	==	==
*-	*-	*-	*-	*-
!!!system-decoration: [*]
!!!RDF**kern: i = editorial accidental
!!!RDF**kern: l = terminal long
!!!ENC: Benjamin Ory
!!!END: 2024/6/4
!!!EED: Benjamin Ory
!!!EEV: 2024/06/04
!!!YEC: Copyright 2024 Benjamin Ory, All Rights Reserved
!!!ONB: Translated from MusicXML on 2024/06/04